chrome/icons/autoplay.svg

<svg width="16" height="16" viewBox="0 0 16 16" fill="none" xmlns="http://www.w3.org/2000/svg">
<g clip-path="url(#clip0_52_1147)">
<path d="M16 8C16 8.73438 15.905 9.4427 15.7148 10.125C15.5247 10.8073 15.2552 11.444 14.9062 12.0352C14.5573 12.6263 14.1393 13.1654 13.6523 13.6523C13.1654 14.1393 12.6263 14.5573 12.0352 14.9062C11.444 15.2552 10.8073 15.5247 10.125 15.7148C9.4427 15.905 8.73438 16 8 16C7.26562 16 6.5573 15.905 5.875 15.7148C5.1927 15.5247 4.55598 15.2552 3.96484 14.9062C3.3737 14.5573 2.83464 14.1393 2.34766 13.6523C1.86067 13.1654 1.44271 12.6263 1.09375 12.0352C0.744792 11.444 0.475261 10.8073 0.285156 10.125C0.095052 9.4427 0 8.73438 0 8C0 7.26562 0.095052 6.5573 0.285156 5.875C0.475261 5.1927 0.744792 4.55598 1.09375 3.96484C1.44271 3.3737 1.86067 2.83464 2.34766 2.34766C2.83464 1.86067 3.3737 1.44271 3.96484 1.09375C4.55598 0.744792 5.1927 0.475261 5.875 0.285156C6.5573 0.0950527 7.26562 0 8 0C8.57812 0 9.14453 0.0598964 9.69922 0.179688C10.2539 0.29948 10.7865 0.475261 11.2969 0.707031C11.8073 0.938803 12.2904 1.22266 12.7461 1.55859C13.2018 1.89453 13.6198 2.27864 14 2.71094V0.5C14 0.364584 14.0495 0.247397 14.1484 0.148438C14.2474 0.0494795 14.3646 0 14.5 0C14.6354 0 14.7526 0.0494795 14.8516 0.148438C14.9505 0.247397 15 0.364584 15 0.5V4.5C15 4.63542 14.9505 4.75261 14.8516 4.85156C14.7526 4.95052 14.6354 5 14.5 5H10.5C10.3646 5 10.2474 4.95052 10.1484 4.85156C10.0495 4.75261 10 4.63542 10 4.5C10 4.36458 10.0495 4.24739 10.1484 4.14844C10.2474 4.04948 10.3646 4 10.5 4H13.75C13.4219 3.53125 13.0456 3.11067 12.6211 2.73828C12.1966 2.36589 11.737 2.05078 11.2422 1.79297C10.7474 1.53516 10.2266 1.33854 9.67969 1.20312C9.13281 1.06771 8.57292 1 8 1C7.35417 1 6.73308 1.08333 6.13672 1.25C5.54036 1.41667 4.98308 1.65234 4.46484 1.95703C3.94661 2.26172 3.47527 2.6263 3.05078 3.05078C2.6263 3.47527 2.26172 3.94661 1.95703 4.46484C1.65234 4.98308 1.41667 5.54036 1.25 6.13672C1.08333 6.73308 1 7.35417 1 8C1 8.64583 1.08333 9.26692 1.25 9.86328C1.41667 10.4596 1.65234 11.0169 1.95703 11.5352C2.26172 12.0534 2.6263 12.5247 3.05078 12.9492C3.47527 13.3737 3.94661 13.7383 4.46484 14.043C4.98308 14.3477 5.54036 14.5833 6.13672 14.75C6.73308 14.9167 7.35417 15 8 15C8.6302 15 9.24089 14.9206 9.83203 14.7617C10.4232 14.6029 10.9779 14.3724 11.4961 14.0703C12.0143 13.7682 12.4896 13.4023 12.9219 12.9727C13.3542 12.543 13.7318 12.0547 14.0547 11.5078C14.6849 10.4245 15 9.2552 15 8C15 7.86458 15.0495 7.74739 15.1484 7.64844C15.2474 7.54948 15.3646 7.5 15.5 7.5C15.6355 7.5 15.7527 7.54948 15.8516 7.64844C15.9505 7.74739 16 7.86458 16 8ZM12.1406 8C12.1406 8.22917 12.082 8.44141 11.9648 8.63672C11.8477 8.83203 11.6901 8.98438 11.4922 9.09375L7.85156 11.0859C7.66927 11.1849 7.46875 11.2344 7.25 11.2344C7.07292 11.2344 6.90886 11.2018 6.75781 11.1367C6.60677 11.0716 6.47527 10.9831 6.36328 10.8711C6.2513 10.7591 6.16277 10.6263 6.09766 10.4727C6.03255 10.319 6 10.1562 6 9.98438V6.01562C6 5.84375 6.03255 5.68098 6.09766 5.52734C6.16277 5.3737 6.2513 5.24089 6.36328 5.12891C6.47527 5.01692 6.60808 4.92708 6.76172 4.85938C6.91536 4.79167 7.07812 4.75781 7.25 4.75781C7.46875 4.75781 7.66927 4.80989 7.85156 4.91406L11.4922 6.90625C11.6901 7.01562 11.8477 7.16797 11.9648 7.36328C12.082 7.55859 12.1406 7.77083 12.1406 8ZM11.1406 8C11.1406 7.90105 11.099 7.82812 11.0156 7.78125L7.36719 5.79688C7.33073 5.77605 7.29167 5.76562 7.25 5.76562C7.17708 5.76562 7.11719 5.78906 7.07031 5.83594C7.02344 5.88281 7 5.9427 7 6.01562V9.98438C7 10.0573 7.02344 10.1172 7.07031 10.1641C7.11719 10.2109 7.17708 10.2344 7.25 10.2344C7.29167 10.2344 7.33073 10.224 7.36719 10.2031L11.0156 8.21875C11.099 8.17188 11.1406 8.09895 11.1406 8Z" fill="context-fill" fill-opacity="context-fill-opacity"/>
</g>
<defs>
<clipPath id="clip0_52_1147">
<rect width="16" height="16" fill="white"/>
</clipPath>
</defs>
</svg>

<svg xmlns="http://www.w3.org/2000/svg" width="16" height="16" fill="none" viewBox="0 0 16 16"><g clip-path="url(#a)"><path fill="context-fill" fill-opacity="context-fill-opacity" d="M16 8q0 1.101-.285 2.125a8 8 0 0 1-.809 1.91 8 8 0 0 1-1.254 1.617 8 8 0 0 1-1.617 1.254A7.9 7.9 0 0 1 8 16a7.92 7.92 0 0 1-4.035-1.094 8 8 0 0 1-1.617-1.254 8 8 0 0 1-1.254-1.617A7.9 7.9 0 0 1 0 8q0-1.101.285-2.125.285-1.023.809-1.91a8 8 0 0 1 1.254-1.617 8 8 0 0 1 1.617-1.254A7.9 7.9 0 0 1 8 0q.867 0 1.7.18.832.18 1.597.527A8 8 0 0 1 14 2.711V.5a.48.48 0 0 1 .148-.352A.48.48 0 0 1 14.5 0a.48.48 0 0 1 .352.148A.48.48 0 0 1 15 .5v4a.48.48 0 0 1-.148.352A.48.48 0 0 1 14.5 5h-4a.48.48 0 0 1-.352-.148A.48.48 0 0 1 10 4.5a.48.48 0 0 1 .148-.352A.48.48 0 0 1 10.5 4h3.25a7.05 7.05 0 0 0-2.508-2.207 7.02 7.02 0 0 0-5.105-.543 7 7 0 0 0-3.086 1.8q-.638.638-1.094 1.415a7 7 0 0 0-.707 1.672A6.9 6.9 0 0 0 1 8q0 .969.25 1.863a7 7 0 0 0 3.215 4.18q.777.457 1.672.707T8 15q.944 0 1.832-.238a6.8 6.8 0 0 0 1.664-.692 7 7 0 0 0 1.426-1.097q.648-.645 1.133-1.465A6.86 6.86 0 0 0 15 8a.48.48 0 0 1 .148-.352.48.48 0 0 1 .352-.148.48.48 0 0 1 .352.148A.48.48 0 0 1 16 8m-3.86 0q0 .344-.175.637a1.24 1.24 0 0 1-.473.457l-3.64 1.992a1.24 1.24 0 0 1-.602.148 1.23 1.23 0 0 1-.887-.363A1.24 1.24 0 0 1 6 9.984V6.016q0-.258.098-.489a1.24 1.24 0 0 1 .664-.668q.23-.1.488-.101.329 0 .602.156l3.64 1.992A1.24 1.24 0 0 1 12.141 8m-1 0a.23.23 0 0 0-.124-.219L7.367 5.797a.23.23 0 0 0-.117-.031.24.24 0 0 0-.18.07.24.24 0 0 0-.07.18v3.968q0 .11.07.18t.18.07q.062 0 .117-.03l3.649-1.985A.23.23 0 0 0 11.14 8"/></g><defs><clipPath id="a"><path fill="#fff" d="M0 0h16v16H0z"/></clipPath></defs></svg>
